!!!!SEGMENT: pl-wumfc--n44042_nowakowski-jozef--wspomnienie-neapolu.krn
!!!cenid: 18xx:4176
!!!COM: Nowakowski, Józef
!!!COM-rismID: pe175316
!!!CDT: 1880/09/16-1865/08/27
!!!CNT: Polish
!!!OTL: Wspomnienie Neapolu
!!!PDT:
!!!AGN:
!!!SMS-siglum: PL-Wumfc
!!!SMS-shelfmark: N44042
!!!SMS-shelfwork: W
!!!SMS-variant:
!!!SMS-altvar:
!!!NIFC-rismSourceID: 1001177230
!!!NIFC-rismChildID: 1001177230
!!!NIFC-islandoraID: pl-wumfc:9468
!!!URL-pdf-islandora: https://repozytorium.nifc.pl/islandora/object/pl-wumfc%3A9468/datastream/PDF/view
!!!URL-scan: https://polish.musicsources.pl/pl/lokalizacje/galeria/druki-muzyczne/12487/1 @EN{Scan on Polish Music Sources Website} @PL{Skany w portalu Dziedzictwo Muzyki Polskiej w otwartym dostępie}
!!!ONB-nifc:
!!!AIN: 1 piano 1 soprn
!!!key: A-
**kern	**kern	**dynam	**kern	**text	**text	**text	**dynam
*part2	*part2	*part2	*part1	*part1	*part1	*part1	*part1
*staff3	*staff2	*	*staff1	*staff1	*staff1	*staff1	*
*I"[FORTEPIAN]	*I"[FORTEPIAN]	*	*I"[Śpiew]	*	*	*	*
*>[A,B,B,B]	*>[A,B,B,B]	*	*>[A,B,B,B]	*	*	*	*
*>A	*>A	*	*>A	*	*	*	*
*Ipiano	*Ipiano	*	*Isoprn	*	*	*	*
*ICklav	*ICklav	*	*ICvox	*	*	*	*
*IGacmp	*IGacmp	*	*IGsolo	*	*	*	*
*clefF4	*clefG2	*	*clefG2	*	*	*	*
*k[b-e-a-d-]	*k[b-e-a-d-]	*	*k[b-e-a-d-]	*	*	*	*
*A-:	*A-:	*	*A-:	*	*	*	*
*M4/4	*M4/4	*	*M4/4	*	*	*	*
*met(c)	*met(c)	*	*met(c)	*	*	*	*
=1	=1	=1	=1	=1	=1	=1	=1
!!LO:TX:a:B:t=Andante.
8AA-\L	4e-\ 4cc 4ee-	p	1ryy	.	.	.	.
8E-\ 8A- 8c	.	.	.	.	.	.	.
8E-\ 8A- 8c	8.f\L 8.dd- 8.ff	.	.	.	.	.	.
8E-\J 8A- 8c	.	.	.	.	.	.	.
.	16e-\Jk 16cc 16ee-	.	.	.	.	.	.
8AA-\L	4.cc\ 4.ee- 4.ccc	.	.	.	.	.	.
8E-\ 8A- 8c	.	.	.	.	.	.	.
8E-\ 8A- 8c	.	.	.	.	.	.	.
8E-\J 8A- 8c	8cc\ 8ee- 8ccc	.	.	.	.	.	.
=2	=2	=2	=2	=2	=2	=2	=2
*^	*^	*	*	*	*	*	*
8AA-\L	2ryy	8.dd-\L 8.ff 8.ddd-	2.ryy	.	1ryy	.	.	.	.
8E-\ 8A- 8c	.	.	.	.	.	.	.	.	.
.	.	16cc\K 16ee- 16ccc	.	.	.	.	.	.	.
8E-\ 8A- 8c	.	8b-\ 8dd- 8bb-	.	.	.	.	.	.	.
8E-\J 8A- 8c	.	8a-\J 8cc 8aa-	.	.	.	.	.	.	.
8DD-/ 8D-	8ryy	4g\ 4b- 4gg	.	.	.	.	.	.	.
8En/L	4.D-\	.	.	.	.	.	.	.	.
8F/	.	4f/ [4ff	8a-\L	.	.	.	.	.	.
8G/J	.	.	8b-\J	.	.	.	.	.	.
=3	=3	=3	=3	=3	=3	=3	=3	=3	=3
4A-/	4C\	8ff/L]	4e-\ 4cc	.	1ryy	.	.	.	.
.	.	[8ee-/J	.	.	.	.	.	.	.
4d-/	4D-\	8ee-/L]	4f\ 4b-	.	.	.	.	.	.
.	.	16dd-/L	.	.	.	.	.	.	.
.	.	16cc/JJ	.	.	.	.	.	.	.
4c/	4E-\	4a-SSs/	4e-\	.	.	.	.	.	.
4G/	4EE-\	8cc/L	4d-\	.	.	.	.	.	.
.	.	8b-/J	.	.	.	.	.	.	.
=4	=4	=4	=4	=4	=4	=4	=4	=4	=4
16r	(2EE-\	(2b-/	(2d-\	.	1ryy	.	.	.	.
16Dn/LL	.	.	.	.	.	.	.	.	.
16E-X/	.	.	.	.	.	.	.	.	.
16En/JJ	.	.	.	.	.	.	.	.	.
16G/LL	.	.	.	.	.	.	.	.	.
16F/	.	.	.	.	.	.	.	.	.
16BB-/	.	.	.	.	.	.	.	.	.
16E-X/JJ	.	.	.	.	.	.	.	.	.
4E-/	4AA-\)	4a-/)	4c\)	.	.	.	.	.	.
4r	4ryy	4r	4ryy	.	.	.	.	.	.
*	*	*v	*v	*	*	*	*	*	*
!!LO:LB:g=original
!!LO:TX:a:t=[segno]
!!LO:TX:b:t=[segno]
=5||	=5||	=5||	=5||	=5||	=5||	=5||	=5||	=5||
*>B	*>B	*>B	*	*>B	*	*	*	*
2E-/	2AAA-\	8r	.	1r	.	.	.	.
.	.	(8A-/L 8c	.	.	.	.	.	.
.	.	8e-/	.	.	.	.	.	.
.	.	8A-/J) 8c	.	.	.	.	.	.
2E-/	2AA-\	8r	.	.	.	.	.	.
.	.	(8A-/L 8c	.	.	.	.	.	.
.	.	8e-/	.	.	.	.	.	.
.	.	8A-/J) 8c	.	.	.	.	.	.
=6	=6	=6	=6	=6	=6	=6	=6	=6
2E-/	2AAA-\	8r	.	4e-/	Znasz-	Znasz-	Znasz-	.
.	.	(8A-/L 8c	.	.	.	.	.	.
.	.	8e-/	.	8f/	-li	-li	-li	.
.	.	8A-/J) 8c	.	8e-/	ten	ten	ten	.
2E-/	2AA-\	8r	.	2cc\	kraj,	kraj,	kraj,	.
.	.	(8A-/L 8c	.	.	.	.	.	.
.	.	8e-/	.	.	.	.	.	.
.	.	8A-/J) 8c	.	.	.	.	.	.
=7	=7	=7	=7	=7	=7	=7	=7	=7
*	*	*	*	*^	*	*	*	*
*	*	*	*	*cue	*	*	*	*	*
2E-/	2AAA-\	8r	.	4cc/	4r	.	Gdzie	Gdzie	.
.	.	(8A-/L 8c	.	.	.	.	.	.	.
*	*	*	*	*Xcue	*	*	*	*	*
.	.	8e-/	.	8cc\	2.ryy	Gdzie	wiel-	po	.
.	.	8A-/J) 8c	.	8cc\	.	cy-	-kich	ska-	.
2E-/	2AA-\	8r	.	(4ee-\	.	-try-	sto	-li-	.
.	.	(8G/L 8d-	.	.	.	.	.	.	.
.	.	8e-/	.	8b-\)	.	-na	.	.	.
.	.	8G/J) 8d-	.	8cc\	.	doy-	po-	-stych	.
*	*	*	*	*v	*v	*	*	*	*
=8	=8	=8	=8	=8	=8	=8	=8	=8
2E-/	2AAA-\	8r	.	4b-\	-rze-	-dwo-	gó-	.
.	.	(8A-/L 8c	.	.	.	.	.	.
.	.	8e-/	.	4a-/	-wa,	-i	-rach,	.
.	.	8A-/J) 8c	.	.	.	.	.	.
2E-/	2AA-\	8r	.	2r	.	.	.	.
.	.	(8A-/L 8c	.	.	.	.	.	.
.	.	8e-/	.	.	.	.	.	.
.	.	8A-/J) 8c	.	.	.	.	.	.
*v	*v	*	*	*	*	*	*	*
=9	=9	=9	=9	=9	=9	=9	=9
*	*^	*	*	*	*	*	*
8AAA-/	8r	8ryy	.	8r	.	.	.	.
(8AA-\L	(8e-/L	8c\L	.	8cc\	Po-	Gdzie	Stru-	.
8D-\	8en/	8B-\	.	8b-\	-ma-	ko-	-dzo-	.
8C\J)	8f/J)	8A-\J	.	8a-/	-rańcz	-lumn	-ny	.
2BB-\	8r	2G\	.	4.g/	blask	rząd	muł	.
.	(<8d-/L 8f	.	.	.	.	.	.	.
.	8g/	.	.	.	.	.	.	.
.	8d-/J) 8f	.	.	8g/	Ma-	J	Swéj	.
!!LO:LB:g=original
=10	=10	=10	=10	=10	=10	=10	=10	=10
4C/	8r	2B-\	.	8.a-/	-jo-	tłum	dro-	.
.	(<8c/L 8en	.	.	.	.	.	.	.
.	.	.	.	16g/	-we	po-	-gi	.
4CC/	8g/	.	.	8dn/	zło-	-są-	szu-	.
.	8c/J) 8e	.	.	8en/	-ci	-gów	-ka	.
2FF/	8r	2A-\	.	4g/	drze-	sto-	w chmu-	.
.	(<8c/L	.	.	.	.	.	.	.
.	8f/	.	.	4f/	-wa,	-i,	-rach,	.
.	8c/J)	.	.	.	.	.	.	.
*	*v	*v	*	*	*	*	*	*
=11	=11	=11	=11	=11	=11	=11	=11
*ped	*	*	*	*	*	*	*
8AAA-/ 8AA-	8E-/ 8c 8e-X	.	1r	.	.	.	.
(8E-\L	8r	.	.	.	.	.	.
8A-\ 8c	8f\L 8ff	.	.	.	.	.	.
*Xped	*	*	*	*	*	*	*
8E-\J)	8e-\J 8ee-	.	.	.	.	.	.
*ped	*	*	*	*	*	*	*
(8AA-'\L	[>2cc\ [2ccc	.	.	.	.	.	.
8E-\	.	.	.	.	.	.	.
8A-\ 8e-	.	.	.	.	.	.	.
*Xped	*	*	*	*	*	*	*
8E-\J)	.	.	.	.	.	.	.
=12	=12	=12	=12	=12	=12	=12	=12
*	*	*	*^	*	*	*	*
*	*	*	*cue	*	*	*	*	*
(8AA-'\L	4cc\] 4ccc]	.	4cc/	4r	.	Gdzie	Gdzie	.
8E-\	.	.	.	.	.	.	.	.
*	*	*	*Xcue	*	*	*	*	*
8A-\ 8e-	8cc\L 8ccc	.	8cc\	4cc/	Gdzie	wiel-	po	.
8E-\J)	8cc\J 8ccc	.	8cc\	.	cy-	-kich	ska-	.
(8AA-'\L	4ee-\ 4eee-	.	(4ee-\	2ryy	-try-	sto	-li-	.
8E-\	.	.	.	.	.	.	.	.
8G\ 8d-	8b-\L 8bb-	.	8b-\)	.	-na	.	.	.
8E-\J)	8cc\J 8ccc	.	8cc\	.	doy-	po-	-stych	.
*	*	*	*v	*v	*	*	*	*
=13	=13	=13	=13	=13	=13	=13	=13
*	*^	*	*	*	*	*	*
(8AA-'\L	(4b-\ 4bb-	2ryy	.	4b-\	-rze-	-dwo-	gó-	.
8E-\	.	.	.	.	.	.	.	.
8A-\ 8c	4a-\) 4aa-	.	.	4a-/	-wa,	-i,	-rach,	.
8E-\J)	.	.	.	.	.	.	.	.
8AA-'/	8r	8ryy	.	8r	.	.	.	.
8CC\L	8A-</L	4.A-<\	.	8ee-\	Po-	Gdzie	Stru-	.
8DD-\	8F</	.	.	8dd-X\	-ma-	ko-	-dzo-	.
8EE-\J	8E-</J	.	.	8cc\	-rańcz	-lumn	-ny	.
=14	=14	=14	=14	=14	=14	=14	=14	=14
!	!LO:N:vis=2	!	!	!	!	!	!	!
2FFF\ 2FF	(8Dn</L	2Dn<\	.	4.b-\	blask	rząd	muł	.
.	8A-</ 8B-<	.	.	.	.	.	.	.
.	8dn</	.	.	.	.	.	.	.
.	8A-</J 8B-<	.	.	8b-\	Ma-	J	Swéj	.
!	!LO:N:vis=2	!	!	!	!	!	!	!
2EEE-\ 2EE-	8D-X</L	2D-<\	.	8.cc\	-jo-	tłum	dro-	.
.	8G</ 8B-<	.	.	.	.	.	.	.
.	.	.	.	16b-\	-we	po-	-gi	.
.	8e-</	.	.	8f/	zło-	-są-	szu-	.
.	8G</J 8B-<	.	.	8g/	-ci	-gów	-ka	.
!!LO:LB:g=original
=15	=15	=15	=15	=15	=15	=15	=15	=15
!	!LO:N:vis=2	!	!	!	!	!	!	!
1AAA- 1EE-	8C</L 8A-<	2C</ 2A-<	.	4b-\	drze-	sło-	w chmu-	.
.	8c</	.	.	.	.	.	.	.
.	8e-</	.	.	4a-/	-wa?	-i?	-rach?	.
.	8c</J	.	.	.	.	.	.	.
!	!LO:N:vis=2	!	!	!	!	!	!	!
.	8E-</L 8A-<	2E-</ 2A-<	.	2r	.	.	.	.
.	8c</	.	.	.	.	.	.	.
.	8e-</	.	.	.	.	.	.	.
.	8c</J)	.	.	.	.	.	.	.
=16	=16	=16	=16	=16	=16	=16	=16	=16
2EE-\	8B-</L	8ryy	.	4g/	Gdzie	A	Gdzie	.
.	(<8e-/	4.e-\	.	.	.	.	.	.
.	8c/	.	.	8a-/	wień-	wszyst-	w głę-	.
.	8B-/J	.	.	8b-\	-cem	-kie	-bi	.
2E-\	8r	2An\	.	4.cc\	bluszcz	mnie	jam	.
.	8c/L	.	.	.	.	.	.	.
.	8f/	.	.	.	.	.	.	.
.	8c/J)	.	.	8cc\	Ru-	Wi-	Pło-	.
*	*v	*v	*	*	*	*	*	*
=17	=17	=17	=17	=17	=17	=17	=17
2EE-/	(8A-X/L	.	8.ddn\	-i-	-ta-	-mie-	.
.	8c-X/	.	.	.	.	.	.
.	.	.	16dd\	-ny	-ją	-niem	.
.	8f/	.	8.ee-\	da-	twa-	wrą	.
.	8c-/J)	.	.	.	.	.	.
.	.	.	16ff\	-wne	-rzą	o-	.
2E-\	(8G/L	.	4ff\	stro-	bia-	-po-	.
.	8B-/	.	.	.	.	.	.
.	8e-/	.	8ee-\	-i,	-łą,	-ki,	.
.	8B-/J)	.	8r	.	.	.	.
=18	=18	=18	=18	=18	=18	=18	=18
*^	*^	*	*	*	*	*	*
!	!	!	!	!	!	!	!	!	!LO:DY:a
8r	2CC-X\	8r	2G-X\	f	4ee-\	Gdzie	Piel-	A	f
(<8GG-X/L	.	(<8c-X/L 8e-	.	.	.	.	.	.	.
8C-X/	.	8g-X/	.	.	8.ff-X\	bu-	-grzy-	z wierz-	.
8GG-/J)	.	8c-/J) 8e-	.	.	.	.	.	.	.
.	.	.	.	.	16ee-\	-ja	-mie	-chu	.
8r	2AAA-\	8r	2F\	.	(4ee-\	la-	nasz	skał	.
(<8AA-/L	.	(<8c-X/L 8d-	.	.	.	.	.	.	.
8D-/	.	8f/	.	.	8dd-X\)	-ur	.	.	.
8AA-/J)	.	8c-/J) 8d-	.	.	16r	.	.	.	.
.	.	.	.	.	16dd-\	J	Ach!	W ka-	.
!!LO:PB:g=original
=19	=19	=19	=19	=19	=19	=19	=19	=19	=19
8r	2GGG-X\	8r	2F-X\	.	8.ee-\	cy-	co	-ska-	.
(<8GG-X/L	.	8B-/L 8d-	.	>	.	.	.	.	.
.	.	.	.	.	16dd-\	-prys	się	-dach	.
8BB-/	.	8g-X/	.	.	8a-/	ci-	z to-	grzmią	.
8GG-/J)	.	8B-/J 8d-	.	]	8b-\	-cho	-bą	po-	.
!	!	!	!	!	!	!	!	!	!LO:DY:a
8r	2CC-X\	8r	2E-\	.	4dd-\	sto-	sta-	-to-	>
(<8GG-/L	.	8G-X/L 8c-X	.	.	.	.	.	.	.
8C-X/	.	8e-/	.	.	8cc-X\	-i,	-ło,	-ki	.
8GG-/J)	.	8G-/J 8c-	.	.	8r	.	.	.	.
=20	=20	=20	=20	=20	=20	=20	=20	=20	=20
8r	2AAA-\	8r	2E-\	.	4cc-X\	Gdzie	Piel-	A	.
(<8EE-/L	.	8A-/L 8c-X	.	.	.	.	.	.	.
8AA-/	.	8e-/	.	.	8.dd-\	bu-	-grzy-	z wierz-	.
8EE-/J)	.	8A-/J 8c-	.	.	.	.	.	.	.
.	.	.	.	.	16cc-\	-ja	-mie	-chu	.
8r	2GGG-X\	8r	2E-\	.	[<4b-\	la-	nasz	skał	.
(<8EE-/L	.	8B-/L	.	.	.	.	.	.	.
.	.	.	.	.	16qqdd-/LL	.	.	.	.
.	.	.	.	.	16qqcc-/JJ	.	.	.	.
*	*	*	*	*	*Xtuplet	*	*	*	*
8GG-X/	.	8e-/	.	.	12b-\]	-ur,	.	.	.
.	.	.	.	.	12r	.	.	.	.
8EE-/J)	.	8B-/J	.	.	.	.	.	.	.
.	.	.	.	.	12b-\	J	Ach!	W ka-	.
*	*	*v	*v	*	*	*	*	*	*
=21	=21	=21	=21	=21	=21	=21	=21	=21
.	8qFFF/	.	.	.	.	.	.	.
4r	2FF-X\	(8A-/L	.	8.b-\	cy-	co	-ska-	.
.	.	8B-/	.	.	.	.	.	.
.	.	.	.	16a-/	-prys	się	-dach	.
4BB-/	.	8dn/	.	8g/	ci-	z to-	grzmią	.
.	.	8B-/J	.	8a-/	-cho	-bą	po-	.
!	!	!	!	!	!	!	!	!LO:DY:a
2E-/	2EE-\	8G/L 8e-	.	4.b-\	sto-	sta-	-to-	<
.	.	8B-/	.	.	.	.	.	.
.	.	8e-/	.	.	.	.	.	.
.	.	8d-X/J)	.	8bn\	-i,	-ło,	-ki,	[[
*v	*v	*	*	*	*	*	*	*
=22	=22	=22	=22	=22	=22	=22	=22
!	!	!LO:DY:a	!	!	!	!	!
4AAA-\	16r<	p	4cc\	Znasz-	Znasz-	Znasz-	.
.	16E-</LL	.	.	.	.	.	.
.	16c</	.	.	.	.	.	.
.	16A-</JJ	.	.	.	.	.	.
4AA-\	16r<	.	8a-/	-li	-li	-li	.
.	(>16F</LL	.	.	.	.	.	.
.	16d-</	.	8f/	ten	ten	ten	.
.	16A-</JJ)	.	.	.	.	.	.
2AAA-\	16r<	.	4.e-/	kraj	kraj	kraj	.
.	(>16E-</LL	.	.	.	.	.	.
.	16c</	.	.	.	.	.	.
.	16A-</JJ	.	.	.	.	.	.
.	16e-</LL	.	.	.	.	.	.
.	16c</	.	.	.	.	.	.
.	16A-</	.	8e-/	Ach!	Ach!	Ach!	.
.	16E-</JJ)	.	.	.	.	.	.
!!LO:LB:g=original
=23	=23	=23	=23	=23	=23	=23	=23
4AAA-\	16r<	.	8cc\	tam	tam	tam	.
.	(>16E-</LL	.	.	.	.	.	.
.	16c</	.	8cc\	o!	o!	o!	.
.	16A-</JJ)	.	.	.	.	.	.
4AA-\	16r<	.	8.a-/	mo-	mo-	mo-	.
.	(>16F-X</LL	.	.	.	.	.	.
.	16d-</	.	.	.	.	.	.
.	16A-</JJ)	.	16f-X/	-ja	-ja	-ja	.
2AAA-\	16r<	.	4e-/	mi-	mi-	mi-	.
.	(>16E-</LL	.	.	.	.	.	.
.	16c</	.	.	.	.	.	.
.	16A-</JJ	.	.	.	.	.	.
.	.	.	16qqg/LL	.	.	.	.
.	.	.	16qqfn/JJ	.	.	.	.
.	16e-</LL	.	4e-/	-ła,	-ła,	-ła,	.
.	16c</	.	.	.	.	.	.
.	16A-</	.	.	.	.	.	.
.	16E-</JJ)	.	.	.	.	.	.
=24	=24	=24	=24	=24	=24	=24	=24
2GGG\ 2GG	16r<	.	4cc\	Tam	Tam	Tam	.
.	(>16En</LL	.	.	.	.	.	.
.	16c</	.	.	.	.	.	.
.	16B-</JJ	.	.	.	.	.	.
.	16en</LL	.	8cc\	był	był	był-	.
.	16c</	.	.	.	.	.	.
.	16B-</	.	8b-\	mi	mi	-by	.
.	16E</JJ)	.	.	.	.	.	.
2FFF\ 2FF	16r<	.	4b-\	raj	raj	raj	.
.	(>16F</LL	.	.	.	.	.	.
.	16c</	.	.	.	.	.	.
.	16A-</JJ	.	.	.	.	.	.
!	!LO:TX:t=P:problem:mixed beam	!	!	!	!	!	!LO:DY:a
.	16f\LL	.	8a-/	Pó-	Pó-	Gdy-	<
.	16c</	.	.	.	.	.	.
.	16A-</	.	8cc\	-kiś	-kiś	-byś	[[
.	16F</JJ)	.	.	.	.	.	.
=25	=25	=25	=25	=25	=25	=25	=25
!	!	!LO:DY:b	!	!	!	!	!LO:DY:a
2EEE-\ 2EE-	16r	f	4ee-\	ty	ty	ty	f
.	(>16G</LL	.	.	.	.	.	.
.	16e-/	.	.	.	.	.	.
.	16d-/JJ	.	.	.	.	.	.
.	16g/LL	.	8.ee-\	ze-	ze-	ze-	.
.	16e-/	.	.	.	.	.	.
.	16d-/	.	.	.	.	.	.
.	16B-/JJ)	.	16dd-\	-mną	-mną	mną	.
2AAA-\ 2AA-	16r	.	4dd-\	by-	by-	by-	.
.	(>16A-</LL	.	.	.	.	.	.
.	16e-/	.	.	.	.	.	.
.	16c/JJ	.	.	.	.	.	.
.	16a-/LL	.	8cc\	-ła,	-ła,	-ła,	.
.	16e-/	.	.	.	.	.	.
.	16c/	.	8r	.	.	.	.
.	16A-/JJ)	.	.	.	.	.	.
!!LO:LB:g=original
=26	=26	=26	=26	=26	=26	=26	=26
!	!	!	!	!	!	!	!LO:DY:a
2DD-\	16r	.	4cc\	Tam	Tam	Tam	>
!	!	!LO:HP:b=2	!	!	!	!	!
.	(>16F</LL	>	.	.	.	.	.
.	16d-/	.	.	.	.	.	.
.	16B-/JJ	.	.	.	.	.	.
*	*	*	*tuplet	*	*	*	*
!	!	!	!LO:TUP:a:problem:brak klamry	!	!	!	!
.	16f/LL	.	12b-\L	był	był	był-	.
.	16d-/	.	.	.	.	.	.
.	.	.	12a-\J	.	.	.	.
.	16B-</	.	.	.	.	.	.
.	.	.	12f/	mi	mi	-by	.
.	16F</JJ)	.	.	.	.	.	.
2EE-\	16r<	.	4e-/	raj,	raj,	raj,	.
.	(>16E-</LL	.	.	.	.	.	.
.	16c</	.	.	.	.	.	.
.	16A-</JJ	.	.	.	.	.	.
.	16e-/LL	.	8dn/	Pó-	Pó-	Gdy-	.
.	16c/	.	.	.	.	.	.
.	16A-</	.	8e-/	-kiś	-kiś	-byś	]]
.	16E-</JJ)	.	.	.	.	.	.
=27	=27	=27	=27	=27	=27	=27	=27
!	!	!	!	!	!	!	!LO:DY:a
4EE-\	16r<	.	4cc\	ty	ty	ty	f
!	!LO:TX:a:i:t=rallent.	!	!	!	!	!	!
.	(>16E-</LL	.	.	.	.	.	.
.	16c</	.	.	.	.	.	.
.	16A-</JJ	.	.	.	.	.	.
4EEE-\ 4EE-	16e-</LL	.	8.cc;\	ze-	ze-	ze-	.
.	16d-</	.	.	.	.	.	.
.	16G</	.	.	.	.	.	.
.	16E-</JJ)	.	16b-\	-mną	-mną	-mną	.
4AAA-\ 4AA-	16r<	.	8b-\	by-	by-	by-	.
.	(>16C</LL 16E-<	.	.	.	.	.	.
.	16A-</	.	8a-/	-ła.	-ła.	-ła.	.
.	16c</JJ	.	.	.	.	.	.
4r	16e-/LL	.	4r	.	.	.	.
.	16a-/	.	.	.	.	.	.
.	16cc/	.	.	.	.	.	.
.	16ff/JJ)	.	.	.	.	.	.
=28	=28	=28	=28	=28	=28	=28	=28
*	*ped	*	*	*	*	*	*
.	16qqee-/LL	.	.	.	.	.	.
.	16qqff/JJ	.	.	.	.	.	.
(16AA-\LL	(16ee-\LL	.	1r	.	.	.	.
16E-\	16ddn\	.	.	.	.	.	.
16G\	16ee-\	.	.	.	.	.	.
16d-\JJ	16bb-\JJ	.	.	.	.	.	.
16G\LL	4ee-\	.	.	.	.	.	.
16d-\	.	.	.	.	.	.	.
*	*Xped	*	*	*	*	*	*
16G\	.	.	.	.	.	.	.
16E-\JJ	.	.	.	.	.	.	.
.	16qqee-/LL	.	.	.	.	.	.
.	16qqff/JJ	.	.	.	.	.	.
*	*ped	*	*	*	*	*	*
16AA-\LL	16ee-\LL	.	.	.	.	.	.
16E-\	16dd\	.	.	.	.	.	.
16A-\	16ee-\	.	.	.	.	.	.
16c\JJ	16aa-\JJ	.	.	.	.	.	.
16A-\LL	4ee-\	.	.	.	.	.	.
16c\	.	.	.	.	.	.	.
16A-\	.	.	.	.	.	.	.
*	*Xped	*	*	*	*	*	*
16E-\JJ	.	.	.	.	.	.	.
!!LO:LB:g=original
=29	=29	=29	=29	=29	=29	=29	=29
.	16qqee-/LL	.	.	.	.	.	.
.	16qqff/JJ	.	.	.	.	.	.
*	*ped	*	*	*	*	*	*
16AA-\LL	16ee-\LL	.	1r	.	.	.	.
16E-\	16ddn\	.	.	.	.	.	.
16G\	16ee-\	.	.	.	.	.	.
16d-\JJ	16gg\JJ	.	.	.	.	.	.
16G\LL	16ff\LL	.	.	.	.	.	.
16d-\	16ee-\	.	.	.	.	.	.
16G\	16b-\	.	.	.	.	.	.
*	*Xped	*	*	*	*	*	*
16E-\JJ)	16cc\JJ)	.	.	.	.	.	.
*	*ped	*	*	*	*	*	*
(16AA-\LL	2a-/	.	.	.	.	.	.
16E-\	.	.	.	.	.	.	.
16A-\	.	.	.	.	.	.	.
16c\JJ	.	.	.	.	.	.	.
16A-\LL	.	.	.	.	.	.	.
16c\	.	.	.	.	.	.	.
16A-\	.	.	.	.	.	.	.
*	*Xped	*	*	*	*	*	*
16E-\JJ	.	.	.	.	.	.	.
=30	=30	=30	=30	=30	=30	=30	=30
.	16qqe-/LL	.	.	.	.	.	.
.	16qqf/JJ	.	.	.	.	.	.
16AA-\LL	(16e-/LL	.	1r	.	.	.	.
16E-\	16dn/	.	.	.	.	.	.
16G\	16e-/	.	.	.	.	.	.
16d-\JJ	16g/JJ)	.	.	.	.	.	.
16G\LL	4ee-\	.	.	.	.	.	.
16d-\	.	.	.	.	.	.	.
16G\	.	.	.	.	.	.	.
16E-\JJ	.	.	.	.	.	.	.
.	16qqe-/LL	.	.	.	.	.	.
.	16qqf/JJ	.	.	.	.	.	.
16AA-\LL	(16e-/LL	.	.	.	.	.	.
16E-\	16d/	.	.	.	.	.	.
16A-\	16e-/	.	.	.	.	.	.
16c\JJ	16a-/JJ) 16cc	.	.	.	.	.	.
16A-\LL	[4ee-\	.	.	.	.	.	.
16c\	.	.	.	.	.	.	.
16A-\	.	.	.	.	.	.	.
16E-\JJ)	.	.	.	.	.	.	.
=31	=31	=31	=31	=31	=31	=31	=31
*	*ped	*	*	*	*	*	*
(16AA-\LL	(8ee-\L]	.	1r	.	.	.	.
16E-\	.	.	.	.	.	.	.
16G\	16dd-\L	.	.	.	.	.	.
16d-\JJ	16cc\JJ	.	.	.	.	.	.
16G\LL	16b-/LL	.	.	.	.	.	.
16d-\	16cc/	.	.	.	.	.	.
16G\	16f/	.	.	.	.	.	.
16E-\JJ	16g/JJ)	.	.	.	.	.	.
*	*Xped	*	*	*	*	*	*
16AA-\LL	[2a-/	.	.	.	.	.	.
16E-\)	.	.	.	.	.	.	.
16A-\	.	.	.	.	.	.	.
16c\JJ	.	.	.	.	.	.	.
16e->\LL	.	.	.	.	.	.	.
16f>\	.	.	.	.	.	.	.
16e->\	.	.	.	.	.	.	.
16c>\JJ	.	.	.	.	.	.	.
=32	=32	=32	=32	=32	=32	=32	=32
!	!LO:TX:b:i:t=poco rallent.	!	!	!	!	!	!
16A-\LL	2a-/]	.	1r	.	.	.	.
16F\	.	.	.	.	.	.	.
16E-\	.	pp	.	.	.	.	.
16C\JJ	.	.	.	.	.	.	.
16AA-/LL	.	.	.	.	.	.	.
16FF/	.	.	.	.	.	.	.
16EE-/	.	.	.	.	.	.	.
16CC/JJ	.	.	.	.	.	.	.
2AAA-;</ 2EE-	2c;</ 2a-	.	.	.	.	.	.
==	==	==	==	==	==	==	==
*-	*-	*-	*-	*-	*-	*-	*-
!!!system-decoration: p1{(p2)}
!!!ENC: Filip Voros
!!!END: 2022-09-08
!!!ENC: Kamil Watkowski
!!!END: 2022-09-22
!!!RDF**kern: > = above
!!!RDF**kern: < = below
!!!YEC: Copyright 2022 Narodowy Instytut Fryderyka Chopina (https://polishscores.org)
!!!YEM: License CC-BY-4.0 (https://creativecommons.org/licenses/by/4.0)
